public/logo-light.svg

<?xml version="1.0" encoding="UTF-8" standalone="no"?>
<svg
   id="Layer_1"
   data-name="Layer 1"
   preserveAspectRatio="none"
   viewBox="0 0 99.999996 27.312227"
   version="1.1"
   sodipodi:docname="vecchissimo.svg"
   inkscape:version="1.3 (0e150ed6c4, 2023-07-21)"
   width="100"
   height="27.312227"
   xmlns:inkscape="http://www.inkscape.org/namespaces/inkscape"
   xmlns:sodipodi="http://sodipodi.sourceforge.net/DTD/sodipodi-0.dtd"
   xmlns="http://www.w3.org/2000/svg"
   xmlns:svg="http://www.w3.org/2000/svg"
   xmlns:rdf="http://www.w3.org/1999/02/22-rdf-syntax-ns#"
   xmlns:cc="http://creativecommons.org/ns#"
   xmlns:dc="http://purl.org/dc/elements/1.1/">
  <sodipodi:namedview
     id="namedview13"
     pagecolor="#ffffff"
     bordercolor="#000000"
     borderopacity="0.25"
     inkscape:showpageshadow="2"
     inkscape:pageopacity="0.0"
     inkscape:pagecheckerboard="0"
     inkscape:deskcolor="#d1d1d1"
     inkscape:zoom="5.7191813"
     inkscape:cx="103.42389"
     inkscape:cy="15.736518"
     inkscape:window-width="1920"
     inkscape:window-height="1000"
     inkscape:window-x="2391"
     inkscape:window-y="136"
     inkscape:window-maximized="1"
     inkscape:current-layer="g13" />
  <defs
     id="defs1">
    <style
       id="style1">&#10;      .cls-1 {&#10;        fill: #1a1a1a;&#10;      }&#10;&#10;      .cls-2 {&#10;        fill: #ff2653;&#10;      }&#10;    </style>
  </defs>
  <title
     id="title1">8b77c72e-c097-4040-b535-00a575727492</title>
  <g
     id="g13">
    <path
       class="cls-1"
       d="M 70.080695,12.849162 V 0.24829299 h 2.234637 V 12.849162 Z"
       id="path1"
       style="fill:#131c20;fill-opacity:1;stroke-width:0.620732" />
    <path
       class="cls-1"
       d="M 12.600869,0.24829299 V 2.4829299 H 3.4140285 A 1.1793917,1.1793917 0 0 0 2.2346368,3.6623215 V 4.8417132 H 10.304159 V 7.0763501 H 2.2346368 V 12.849162 H -2.8499557e-8 V 3.6623215 A 3.4140286,3.4140286 0 0 1 3.3519553,0.24829299 Z"
       id="path2"
       style="fill:#131c20;fill-opacity:1;stroke-width:0.620732" />
    <path
       class="cls-1"
       d="m 24.518932,10.614525 1.179392,2.234637 H 23.153321 L 21.973929,10.614525 20.794538,8.2557418 V 8.1315953 A 2.2346369,2.2346369 0 0 0 18.870267,7.0763501 h -2.29671 V 12.849162 H 14.33892 V 0.24829299 h 7.945375 a 3.3519553,3.3519553 0 0 1 3.351956,3.35195531 3.4140286,3.4140286 0 0 1 -1.986344,3.1036623 l -0.993172,0.248293 z M 22.284295,4.77964 22.780881,4.6554935 A 1.1173184,1.1173184 0 0 0 23.463687,3.6002483 1.1793917,1.1793917 0 0 0 23.153321,2.7932961 1.1173184,1.1173184 0 0 0 22.284295,2.4829299 h -5.710738 v 2.3587833 z"
       id="path3"
       style="fill:#131c20;fill-opacity:1;stroke-width:0.620732" />
    <path
       class="cls-1"
       d="m 40.285537,12.849162 h -2.545003 l -1.117319,-2.234637 -2.793296,-5.4003723 -2.731223,5.4003723 -1.179391,2.234637 h -2.48293 L 28.615767,10.614525 33.829919,0.24829299 39.106145,10.614525 Z"
       id="path4"
       style="fill:#131c20;fill-opacity:1;stroke-width:0.620732" />
    <path
       class="cls-2"
       d="m 85.66108,0 v 2.5450031 l -2.234637,1.1793917 -5.400372,2.7312228 5.400372,2.7312229 2.234637,1.1793915 v 2.545003 L 83.426443,11.731844 73.060211,6.4556176 83.426443,1.1793917 Z"
       id="path5"
       style="fill:#17d7a0;fill-opacity:1;stroke-width:0.620732" />
    <path
       class="cls-1"
       d="M 54.68653,0.24829299 V 12.849162 L 52.451893,11.111111 44.382371,4.9037865 v 7.9453755 h -2.29671 V 0.31036623 L 44.320298,2.0484171 52.38982,8.2557418 V 0.24829299 Z"
       id="path6"
       style="fill:#131c20;fill-opacity:1;stroke-width:0.620732" />
    <path
       class="cls-1"
       d="m 58.721291,6.5176909 a 4.034761,4.034761 0 0 0 4.034761,4.0347611 h 5.524519 v 2.234637 h -5.462446 a 6.3004346,6.3004346 0 0 1 0,-12.60086926 h 5.462446 V 2.4829299 h -5.462446 a 4.034761,4.034761 0 0 0 -4.096834,4.034761 z"
       id="path7"
       style="fill:#131c20;fill-opacity:1;stroke-width:0.620732" />
    <path
       class="cls-1"
       d="M 87.399131,12.787089 Z M 100,0.18621974 95.158287,6.5176909 94.909994,6.8901304 V 12.849162 H 92.675357 V 6.8901304 L 92.364991,6.5176909 87.399131,0.18621974 H 90.2545 l 3.476102,4.46927376 3.414029,-4.46927376 z"
       id="path8"
       style="fill:#131c20;fill-opacity:1;stroke-width:0.620732" />
    <path
       class="cls-1"
       d="M 52.451893,27.312228 V 14.835506 h 2.234637 v 12.476722 z"
       id="path9"
       style="fill:#131c20;fill-opacity:1;stroke-width:0.620732" />
    <path
       class="cls-1"
       d="m 66.045934,18.311608 v 0 A 1.1793917,1.1793917 0 0 0 64.928616,17.194289 H 59.83861 a 1.1793917,1.1793917 0 0 0 -1.117319,1.117319 v 0 a 1.1793917,1.1793917 0 0 0 1.117319,1.117318 h 4.531346 a 3.9106145,3.9106145 0 0 1 2.917443,1.303538 l 0.124147,0.18622 a 3.9726878,3.9726878 0 0 1 -3.103663,6.393544 h -3.910614 a 3.9726878,3.9726878 0 0 1 -3.910615,-3.910614 h 2.234637 a 1.7380509,1.7380509 0 0 0 1.738051,1.738051 h 3.910614 a 1.7380509,1.7380509 0 1 0 0,-3.414029 H 59.83861 a 3.3519553,3.3519553 0 0 1 -2.358784,-0.931098 l -0.434513,-0.55866 a 3.2898821,3.2898821 0 0 1 -0.558659,-1.92427 v 0 a 3.3519553,3.3519553 0 0 1 3.351956,-3.351956 h 5.090006 a 3.4140286,3.4140286 0 0 1 3.351955,3.351956 z"
       id="path10"
       style="fill:#131c20;fill-opacity:1;stroke-width:0.620732" />
    <path
       class="cls-1"
       d="M 70.080695,27.312228 V 14.835506 h 2.234637 v 12.476722 z"
       id="path11"
       style="fill:#131c20;fill-opacity:1;stroke-width:0.620732" />
    <path
       class="cls-1"
       d="m 80.322781,14.835506 a 6.2073246,6.2073246 0 0 1 4.77964,10.242086 l -0.37244,0.372439 a 6.1452514,6.1452514 0 0 1 -4.4072,1.862197 H 74.053383 V 14.835506 h 6.207325 z m 4.034761,6.269398 A 4.034761,4.034761 0 0 0 80.322781,17.070143 H 76.28802 v 8.069522 h 4.034761 a 4.034761,4.034761 0 0 0 4.034761,-4.034761 z"
       id="path12"
       style="fill:#131c20;fill-opacity:1;stroke-width:0.620732" />
    <path
       class="cls-1"
       d="m 90.62694,18.187461 v 1.179392 h 7.138423 V 21.60149 H 90.62694 v 2.358783 a 1.1793917,1.1793917 0 0 0 1.117318,1.117319 h 8.193669 v 2.234636 h -8.193669 a 3.3519553,3.3519553 0 0 1 -3.351955,-3.351955 v -5.772812 a 3.3519553,3.3519553 0 0 1 3.351955,-3.351955 h 8.193669 v 2.234637 h -8.193669 a 1.1793917,1.1793917 0 0 0 -1.117318,1.117318 z"
       id="path13"
       style="fill:#131c20;fill-opacity:1;stroke-width:0.620732" />
  </g>
  <metadata
     id="metadata13">
    <rdf:RDF>
      <cc:Work
         rdf:about="">
        <dc:title>8b77c72e-c097-4040-b535-00a575727492</dc:title>
      </cc:Work>
    </rdf:RDF>
  </metadata>
</svg>

<svg id="Layer_1" data-name="Layer 1" preserveAspectRatio="none" version="1.1" width="100" height="27.312" xmlns="http://www.w3.org/2000/svg"><defs id="defs1"><style id="style1">.cls-1{fill:#1a1a1a}</style></defs><g id="g13"><path class="cls-1" d="M70.08 12.85V.247h2.235V12.85Z" id="path1" style="fill:#131c20;fill-opacity:1;stroke-width:.620732"/><path class="cls-1" d="M12.6.248v2.235H3.415a1.18 1.18 0 0 0-1.18 1.18v1.179h8.07v2.234h-8.07v5.773H0V3.662A3.414 3.414 0 0 1 3.352.248Z" id="path2" style="fill:#131c20;fill-opacity:1;stroke-width:.620732"/><path class="cls-1" d="m24.519 10.615 1.18 2.234h-2.546l-1.18-2.234-1.178-2.36v-.123a2.235 2.235 0 0 0-1.925-1.056h-2.296v5.773h-2.235V.25h7.945A3.352 3.352 0 0 1 25.636 3.6a3.414 3.414 0 0 1-1.986 3.104l-.993.248zM22.284 4.78l.497-.125a1.117 1.117 0 0 0 .683-1.055 1.18 1.18 0 0 0-.31-.807 1.117 1.117 0 0 0-.87-.31h-5.71v2.359z" id="path3" style="fill:#131c20;fill-opacity:1;stroke-width:.620732"/><path class="cls-1" d="M40.286 12.85H37.74l-1.118-2.235-2.793-5.4-2.731 5.4-1.18 2.234h-2.483l1.18-2.234L33.83.248l5.276 10.367Z" id="path4" style="fill:#131c20;fill-opacity:1;stroke-width:.620732"/><path d="M85.661 0v2.545l-2.235 1.18-5.4 2.73 5.4 2.732 2.235 1.18v2.544l-2.235-1.18L73.06 6.457l10.366-5.277Z" id="path5" style="fill:#17d7a0;fill-opacity:1;stroke-width:.620732"/><path class="cls-1" d="M54.687.248V12.85l-2.235-1.738-8.07-6.207v7.945h-2.296V.31l2.234 1.738 8.07 6.208V.248Z" id="path6" style="fill:#131c20;fill-opacity:1;stroke-width:.620732"/><path class="cls-1" d="M58.721 6.518a4.035 4.035 0 0 0 4.035 4.034h5.525v2.235h-5.463a6.3 6.3 0 0 1 0-12.6h5.463v2.296h-5.463a4.035 4.035 0 0 0-4.097 4.035z" id="path7" style="fill:#131c20;fill-opacity:1;stroke-width:.620732"/><path class="cls-1" d="M87.4 12.787ZM100 .187l-4.842 6.33-.248.373v5.96h-2.235V6.89l-.31-.372L87.399.186h2.855l3.477 4.47 3.414-4.47z" id="path8" style="fill:#131c20;fill-opacity:1;stroke-width:.620732"/><path class="cls-1" d="M52.452 27.312V14.836h2.235v12.476z" id="path9" style="fill:#131c20;fill-opacity:1;stroke-width:.620732"/><path class="cls-1" d="M66.046 18.312a1.18 1.18 0 0 0-1.117-1.118h-5.09a1.18 1.18 0 0 0-1.118 1.118 1.18 1.18 0 0 0 1.118 1.117h4.531a3.91 3.91 0 0 1 2.917 1.303l.125.187a3.973 3.973 0 0 1-3.104 6.393h-3.91a3.973 3.973 0 0 1-3.911-3.91h2.234a1.738 1.738 0 0 0 1.738 1.738h3.911a1.738 1.738 0 1 0 0-3.414h-4.531a3.352 3.352 0 0 1-2.36-.931l-.434-.56a3.29 3.29 0 0 1-.558-1.923 3.352 3.352 0 0 1 3.352-3.352h5.09a3.414 3.414 0 0 1 3.352 3.352z" id="path10" style="fill:#131c20;fill-opacity:1;stroke-width:.620732"/><path class="cls-1" d="M70.08 27.312V14.836h2.235v12.476z" id="path11" style="fill:#131c20;fill-opacity:1;stroke-width:.620732"/><path class="cls-1" d="M80.323 14.836a6.207 6.207 0 0 1 4.78 10.242l-.373.372a6.145 6.145 0 0 1-4.407 1.862h-6.27V14.836h6.208zm4.035 6.269a4.035 4.035 0 0 0-4.035-4.035h-4.035v8.07h4.035a4.035 4.035 0 0 0 4.035-4.035z" id="path12" style="fill:#131c20;fill-opacity:1;stroke-width:.620732"/><path class="cls-1" d="M90.627 18.187v1.18h7.138V21.6h-7.138v2.36a1.18 1.18 0 0 0 1.117 1.117h8.194v2.234h-8.194a3.352 3.352 0 0 1-3.352-3.352v-5.773a3.352 3.352 0 0 1 3.352-3.351h8.194v2.234h-8.194a1.18 1.18 0 0 0-1.117 1.117z" id="path13" style="fill:#131c20;fill-opacity:1;stroke-width:.620732"/></g></svg>
